icons/desktop/16/svg/vertical-tabs-16.svg

<svg width="16" height="16" viewBox="0 0 16 16" fill="none" xmlns="http://www.w3.org/2000/svg">
<path fill-rule="evenodd" clip-rule="evenodd" d="M8 2C9.4553 2 11.0559 2.05884 12.7773 2.21289L13.5225 2.28516L13.7812 2.32422C15.0525 2.57884 16 3.69884 16 5.02539V10.9746C16 12.3741 14.9513 13.5653 13.5459 13.7119C11.8584 13.8874 10.0011 14 8 14C6.33683 14 4.48373 13.9228 2.47754 13.7148C1.07827 13.5696 0 12.3897 0 10.9746V5.02539C0 3.62588 1.04865 2.43465 2.4541 2.28809C4.14156 2.11265 5.99888 2 8 2ZM8 12.5C9.94487 12.5 11.7501 12.3903 13.3906 12.2197C14.0189 12.154 14.5 11.6189 14.5 10.9746V5.02539C14.5 4.38652 14.0099 3.84407 13.3672 3.77734C11.4176 3.5753 9.6167 3.5 8 3.5V12.5ZM3 10.5C2.58579 10.5 2.25 10.8358 2.25 11.25C2.25 11.6642 2.58579 12 3 12H5.5C5.91421 12 6.25 11.6642 6.25 11.25C6.25 10.8358 5.91421 10.5 5.5 10.5H3ZM3 7.25C2.58579 7.25 2.25 7.58579 2.25 8C2.25 8.41421 2.58579 8.75 3 8.75H5.5C5.91421 8.75 6.25 8.41421 6.25 8C6.25 7.58579 5.91421 7.25 5.5 7.25H3ZM3 4C2.58579 4 2.25 4.33579 2.25 4.75C2.25 5.16421 2.58579 5.5 3 5.5H5.5C5.91421 5.5 6.25 5.16421 6.25 4.75C6.25 4.33579 5.91421 4 5.5 4H3Z" fill="black"/>
</svg>

<!-- This Source Code Form is subject to the terms of the Mozilla Public
   - License, v. 2.0. If a copy of the MPL was not distributed with this
   - file, You can obtain one at http://mozilla.org/MPL/2.0/. -->
<svg xmlns="http://www.w3.org/2000/svg" width="16" height="16" fill="context-fill" fill-opacity="context-fill-opacity" viewBox="0 0 16 16">
    <path fill-rule="evenodd" d="M8 2c1.455 0 3.056.059 4.777.213l.746.072.258.04A2.76 2.76 0 0 1 16 5.024v5.95c0 1.4-1.049 2.59-2.454 2.737a53.6 53.6 0 0 1-11.068.003A2.76 2.76 0 0 1 0 10.975v-5.95c0-1.4 1.049-2.59 2.454-2.737A54 54 0 0 1 8 2m0 10.5c1.945 0 3.75-.11 5.39-.28.629-.066 1.11-.601 1.11-1.245v-5.95c0-.638-.49-1.18-1.133-1.248A52 52 0 0 0 8 3.5zm-5-2A.75.75 0 0 0 3 12h2.5a.75.75 0 0 0 0-1.5zm0-3.25a.75.75 0 0 0 0 1.5h2.5a.75.75 0 0 0 0-1.5zM3 4a.75.75 0 0 0 0 1.5h2.5a.75.75 0 0 0 0-1.5z" clip-rule="evenodd" />
</svg>
